X:61
T:Steyrer Tanz in G, nr. 20
C:traditionell
R:Steirer
A:Hallstatt, Salzkammergut
B:Corpus Musicae Popularis Austriacae (COMPA), 5.Band: J.M.Schmalnauer " Tanz Musik", Verlag Boehlau, Wien 1996
S:manuscript des Johann Michael Schmalnauer um 1820
N:im der quelle in G
Z:abc transcription Simon Wascher
F:http://simonwascher.info/TradArchiv/
M:3/4
L:1/8
K:G
V:1
%violino 1mo
W:g:Ap:
dg |\
(b2 df) a2 | (dg) b2 (dg) | bd'ac'dc' | d'c' b2 dg |\
(b2 df) a2 | (dg) b2 (dg) | bd'ac'df | g2 G2 :|
|: (dg) |\
.b.g.d.f.a.f | .d.g.b.g.d.g | (bd')(ac')(dc') | (d'c')(bg)(dg) |\
.b.g.d.f.a.f | .d.g.b.g.d.g | bd'ac'df | g2 G2 :|
V:2
%violino 2do
Bd |\
Tg2 (Bd) Tf2 | (Bd) Tg2 (Bd) | gbfaBa | ba g2 Bd |\
Tg2 (Bd) Tf2 | (Bd) Tg2 (Bd) | gbfadc | [B4D4] :|
|: (Bd |\
g).d.A.d.f.d | BdgdBd | (gb)(fa)(Aa) | (ba)(gd)(Bd) |\
.g.d.A.d.f.d | .B.d.g.d.B.d | (gb)(fa)(dc) | B4 :|
